X:3
T:Lord Boyd's Reel. Ca1758.027
R:Reel
M:C|
L:1/8
Q:1/2=85
B:Cahusac,T. 24 Country Dances for the Year 1758
Z:vmp.Mike Hicken 2015 www.village-music-project.org.uk
N:* There is no repeat sign shown here in the original.
K:A
cAcA eAaA|cAeA f2e2|cAcA eAaA| f/g/a dc Tc2 B2 :|
|: BEdB cAec|^dBag f2e2| Tf<g af ecaf|edcB A2A2 "*":|
W:
W: The 1st. Cu. cast off two Cu. .|  lead up
W: to the top and cast off :|  then set contra-
W:ry Corners and not turn but set Part-
W: ners .|  the other Corners the same :| then
W: turn contrary Corners with Right hands
W: and Partners with Left .|  the
W: other corners the same :|  then
W: lead thro' Bottom and top cast
W: off and turn :|

